X:154
%%musicspace -10
T:The Trumpet Hornpipe
T:(Captain Pugwash)
M:4/4
L:1/16
K:G
D4 | "G"(3G2G2G2 G4 (3G2G2G2 G4 | B3G B3d g3d B3G | "D"(3D2D2D2 D4 (3D2D2D2 D4 | F3D F3A c3A F3D | 
"G"(3G2G2G2 G4 (3G2G2G2 G3d | B3G B3d g4 g4 | "D"f3a g3f "A7"e3g f3e | "D"d4 d4 d4  B3c || 
"G"(3d2d2d2 d4 (3d2d2d2 d4 | "C"e3f g3f e3d c3B | "Am"c3d e3d c3B A3G | "D7"F3G A3G F3D E3F | 
"G"(3G2G2G2 G4 (3[=FB]2[=FB]2[=FB]2 [=FB]4 | (3[Ec]2[Ec]2[Ec]2 [Ec]4 (3[_E^c]2[_E^c]2[_E^c]2 [_E^c]4 | "D7"[Dd]3[Ee] [Ff]3[Ee] [Dd]3[Dd] [Ee]2[Ff]2 | "G"[Gg]4 [Gg]4 [Gg]4 |]

%%newpage

